X: 7
T: The Road To Skye
R: jig
M: 6/8
L: 1/8
K: Gmaj
D|GFG DB,D|GBd e2d|gBB BAB|cBc DEF|
GFG DB,D|GBd e2d|gdB BAB|cEF G2:|
D|GBd GBd|GBd cBA|GBd efg|fdd def|
gag fgf|ege d2B|c2c Adc|AGF G2:||

